X: 5
T: Whistle Ower The Lave O't
Z: ceolachan
S: https://thesession.org/tunes/2051#setting15450
R: strathspey
M: 4/4
L: 1/8
K: Gmaj
|: G>DE>G B>A B2 | d>eB>g A>G E2 | G>DE>G B>ABg | G<GB>G A2 G2 :||: de/f/ g>d e>d B2 | d>eB>g A>G E2 | g>be>g d>eBg | A<GB>G A2 G2 :||: G>BA>c B>GA>c | B>GA>E G>B, A,2 | G,>B,A,>C B,>DGB | G<GB>G A2 G2 :||: G/A/B/c/ dg ed B2 | c>AB>G c>G E2 | BA/B/ cB/c/ de/f/ gf/e/ | d<GB>G A2 G2 :|~| g>be>g d>eB>g | G<GB>G A2 G2 :||: G>BA>c B>GA>c | B>GA>E G>B A2 | G>BA>c B>dG>B | G<GB>G A2 G2 :||: G>EE<G B>A B2 | d<eB>g A>G E2 | G>DE<G G>AB>g | G<GB>G A2 G2 :|de/f/ g>f e>d B2 | d>eB>g A>G E2 | de/f/ g>f e>dB<g | G<GB>G A2 G2 |de/f/ g>f e>d B2 | c>aB>g A>G E2 | g>be>g d>gB<b | G<GB>G A2 G2 |||: G>BA>c B>GA>c | B>GA>F G>B, A,2 | G,>B,A,>C B,>DG<B | A>Bc>B A2 G2 :|G/A/B/c/ d<g e>cB>G | c>AB>G A>G E2 | BA/B/ cB/c/ de/f/ g2 | G<GB>G A2 G2 | G/A/B/c/ d<g e>cB>G | ce/c/ Bd/B/ A>G E2 | g>be>g d>gB<b | G<GB>G A2 G2 ||
